X:183
T:Tsto Bylo
O:klezmer
M:3/4
L:1/8
Q:1/4=128
K:Am
V:1
E ||"Am" E2 A3 G|"Dm" F2 B3 A|"Em" G2 "E7" c2 B2 |
"Am" A4 zE |"C" E2 (A2 "C#" A)G |"Dm" F2 B3 A|"G" G2 "Am7" c2 "G7" d2 |
"C6" e4 "E" e2  |:"Bb" e2 "A7" f3 e|"D7" e2 d3 c|"G9" c4 Ge |
"C6" d2 c2 zc |"F7" c2 F2 A2 |"Dm" c2 B3 B|"E9" B2 E2 B2 |
|1 "Am" A4 ze :|2 "Am" A4 z||
V:2          %lange noten
z ||[E6C6]|[D6F6]|[D6E6]|
[C4E4]z2 |C4 _B,2 |[B,6D6]|[B,2F2][E2G2][F2G2]|
[G4E4][E2^G2] |:[G2E2][G4^c4]|[^F6A6 c6]|[F4A4 B4]F2 |
[B2G2 E2][A4G4 E4]|[_E6A6]|[D6F6 A6]|[^G2^F2 D6]z2 E2 |
|1 [C4E4]z[E^Gd]:|2 [E4C4 A4]z||





